assets/sonr-icons/copy.svg

<svg xmlns="http://www.w3.org/2000/svg" width="24" height="24" fill="none" viewBox="0 0 24 24"><path fill="#000" d="M21 8.94002C20.989 8.83902 20.967 8.74802 20.937 8.66102L20.94 8.67002V8.58002C20.889 8.47302 20.825 8.38002 20.749 8.29902L14.75 2.30002C14.67 2.22402 14.578 2.16102 14.476 2.11202L14.469 2.10902C14.455 2.10702 14.44 2.10602 14.424 2.10602C14.408 2.10602 14.392 2.10802 14.377 2.11002H14.379C14.284 2.05402 14.172 2.01502 14.053 2.00002L14.048 1.99902H9.99799C8.34099 1.99902 6.99799 3.34202 6.99799 4.99902V5.99902H5.99799C4.34099 5.99902 2.99799 7.34202 2.99799 8.99902V18.999C2.99799 20.656 4.34099 21.999 5.99799 21.999H13.998C15.655 21.999 16.998 20.656 16.998 18.999V17.999H17.998C19.655 17.999 20.998 16.656 20.998 14.999V8.99902C20.998 8.99902 20.998 8.99902 20.998 8.93902L21 8.94002ZM15 5.41002L17.59 8.00002H16C15.448 8.00002 15 7.55202 15 7.00002V5.41002ZM15 19C15 19.552 14.552 20 14 20H5.99999C5.44799 20 4.99999 19.552 4.99999 19V9.00002C4.99999 8.44802 5.44799 8.00002 5.99999 8.00002H6.99999V15C6.99999 16.657 8.34299 18 9.99999 18H15V19ZM19 15C19 15.552 18.552 16 18 16H9.99999C9.44799 16 8.99999 15.552 8.99999 15V5.00002C8.99999 4.44802 9.44799 4.00002 9.99999 4.00002H13V7.00002C13 8.65702 14.343 10 16 10H19V15Z"/></svg>

<svg xmlns="http://www.w3.org/2000/svg" width="24" height="24" fill="none"><path fill="currentColor" d="M21 8.94a1.3 1.3 0 0 0-.063-.279l.003.009v-.09a1.1 1.1 0 0 0-.191-.281L14.75 2.3a1 1 0 0 0-.274-.188l-.007-.003a.3.3 0 0 0-.092.001h.002a.9.9 0 0 0-.326-.11l-.005-.001h-4.05a3 3 0 0 0-3 3v1h-1a3 3 0 0 0-3 3v10a3 3 0 0 0 3 3h8a3 3 0 0 0 3-3v-1h1a3 3 0 0 0 3-3v-6.06zm-6-3.53L17.59 8H16a1 1 0 0 1-1-1zM15 19a1 1 0 0 1-1 1H6a1 1 0 0 1-1-1V9a1 1 0 0 1 1-1h1v7a3 3 0 0 0 3 3h5zm4-4a1 1 0 0 1-1 1h-8a1 1 0 0 1-1-1V5a1 1 0 0 1 1-1h3v3a3 3 0 0 0 3 3h3z"/></svg>
